packages/katcn/src/icons/svg/home-solid.svg

<svg width="24" height="24" viewBox="0 0 24 24" fill="none" xmlns="http://www.w3.org/2000/svg">
<path d="M8.73134 21H5.41791C4.07463 21 3 19.9227 3 18.5761V10.1372C3 9.05985 3.53731 7.98254 4.52239 7.35412L10.7015 3.40399C11.5075 2.86534 12.4925 2.86534 13.2985 3.40399L19.4776 7.35412C20.3731 7.98254 21 8.97007 21 10.1372V18.5761C21 19.9227 19.9254 21 18.5821 21H15.3582H8.73134Z" fill="black"/>
<path fill-rule="evenodd" clip-rule="evenodd" d="M12.7429 4.2354C12.2732 3.92153 11.7268 3.92153 11.2571 4.2354L11.2401 4.24654L5.06101 8.19667C4.37822 8.63225 4 9.38393 4 10.1372V18.5761C4 19.3728 4.62926 20 5.41791 20H18.5821C19.3707 20 20 19.3728 20 18.5761V10.1372C20 9.35819 19.5879 8.65983 18.9196 8.18424L12.7599 4.24654L12.7429 4.2354ZM13.845 2.56649C12.7073 1.81118 11.2927 1.81117 10.155 2.56647L3.98456 6.51106C3.98441 6.51116 3.98471 6.51097 3.98456 6.51106C2.69748 7.33237 2 8.73593 2 10.1372V18.5761C2 20.4726 3.51999 22 5.41791 22H18.5821C20.48 22 22 20.4726 22 18.5761V10.1372C22 8.5883 21.1651 7.31662 20.052 6.53556C20.0403 6.5273 20.0283 6.5193 20.0162 6.51157L13.845 2.56649Z" fill="black"/>
</svg>

<svg xmlns="http://www.w3.org/2000/svg" fill="none" viewBox="0 0 24 24"><path fill="#000" d="M8.731 21H5.418A2.41 2.41 0 0 1 3 18.576v-8.439a3.31 3.31 0 0 1 1.522-2.783l6.18-3.95a2.29 2.29 0 0 1 2.597 0l6.179 3.95C20.373 7.983 21 8.97 21 10.137v8.44A2.41 2.41 0 0 1 18.582 21z"/><path fill="#000" fill-rule="evenodd" d="M12.743 4.235a1.29 1.29 0 0 0-1.486 0l-.017.012-6.179 3.95A2.31 2.31 0 0 0 4 10.137v8.44C4 19.372 4.63 20 5.418 20h13.164A1.41 1.41 0 0 0 20 18.576v-8.439c0-.779-.412-1.477-1.08-1.953l-6.16-3.937zm1.102-1.669a3.29 3.29 0 0 0-3.69 0l-6.17 3.945A4.31 4.31 0 0 0 2 10.137v8.44A3.41 3.41 0 0 0 5.418 22h13.164A3.41 3.41 0 0 0 22 18.576v-8.439c0-1.549-.835-2.82-1.948-3.601l-.036-.024z" clip-rule="evenodd"/></svg>
